X:1
T: Mr. Gordon of Hallhead
C:William Marshall
R:Strathspey
Q: 128
K:G
M:4/4
L:1/16
|:G3D B,3D GFED B,3D|GG,3 BD3 FA3 A3B|G3D B,3D GFEF G3g|d3B cBAG DG3 G4|
G3D B,3D GFED B,3D|GG,3 BD3 FA3 A3B|G3D B,3D GFEF G3g|d3B cBAG DG3 G4|
gfga g4 gfga g4|efga gfed ea3 a3f|g3b gd3 eg3 d3B|c3e Ad3 BG3 G3d|
gfga g4 gfga g4|gaba gfed ea3 a2gf|gb3 eg3 dg3 BG3|c3A cBAG DG3 G4:|
